X: 305732
M: 6/8
L: 1/8
K: C
ccc (c/d/e/f/g/e/) | fdd d2g | edc cBc | dBG GAB |\
ccc  c/d/e/f/g/e/  | fdd d2c | BAG GAB | ccc c2 H|]
g |\
c'2e' c'2e' | c'2e' g2g | f2e d2c | egg g2g |\
c'2e' c'2e' | c'2e' g2f | f2e d2c | egg g/a/g/f/e/"^D.C."d/ |]
E |\


